X: 37575
T: Smell Of The Bog, The
R: hornpipe
M: 4/4
K: Gmajor
(3gfe|:dGBd ed(3gfe|dBGB dged|c2 Ac BAGB|(3ABA (3GFE D2 (3gfe|
dGBd ef (3gfe|dBGB dged|egce dgfa|1 gbfa g2 (3gfe:|2 gbfa gfga||
|:bg (3agf gBfB|gBfB edBd|efga bgfd|(3efg fd efga|
bgaf gBfB|gBfB edBd|egce fdaf|1 gbaf g2 ga:|2 gbaf g2 (3gfe||

